src/icons/svg/show-more.svg

<!--category:navigation-->
<!--character:E125-->
<svg width="24" height="24" viewBox="0 0 24 24" xmlns="http://www.w3.org/2000/svg"><path d="M12.7097565,18.7025243 C12.3519441,19.1009491 11.7267636,19.1020402 11.3675553,18.7048668 L8.5723301,15.402828 C8.23852566,15.0337433 8.26791306,14.4646491 8.63796871,14.1317205 C9.00802436,13.7987919 9.5786157,13.8281022 9.91242015,14.1971869 L11.7375265,16.4265737 C11.7468123,16.436841 11.7566249,16.4466192 11.7669246,16.455869 C11.9312864,16.603477 12.184188,16.5898954 12.331796,16.4255336 L14.0854677,14.2458128 C14.417975,13.8755652 14.98846,13.8442635 15.3596816,14.1758983 C15.7309032,14.5075332 15.7622873,15.0765213 15.42978,15.4467689 L12.7097565,18.7025243 Z M9.91242015,9.80485936 C9.5786157,10.173944 9.00802436,10.2032543 8.63796871,9.87032574 C8.26791306,9.53739715 8.23852566,8.96830296 8.5723301,8.59921829 L11.3675553,5.29717947 C11.7267636,4.90000606 12.3519441,4.90109716 12.7097565,5.29952196 L15.42978,8.55527736 C15.7622873,8.92552492 15.7309032,9.49451305 15.3596816,9.82614792 C14.98846,10.1577828 14.417975,10.126481 14.0854677,9.75623346 L12.331796,7.57651268 C12.184188,7.41215083 11.9312864,7.39856919 11.7669246,7.54617724 C11.7566249,7.55542704 11.7468123,7.56520528 11.7375265,7.57547251 L9.91242015,9.80485936 Z"/></svg>

<!--category:navigation-->
<!--character:E125-->
<svg width="24" height="24" viewBox="0 0 24 24" xmlns="http://www.w3.org/2000/svg"><path d="M12.709756 18.702524c-.357812.398425-.982992.399516-1.3422.002343L8.57233 15.402828c-.333804-.369085-.304417-.938179.065639-1.271107.370055-.33293.940647-.303619 1.274451.065466l1.825107 2.229387a.399982.399982 0 00.029398.029295c.164361.147608.417263.134026.564871-.030335l1.753672-2.179721c.332507-.370248.902992-.40155 1.274214-.069915.371221.331635.402605.900623.070098 1.27087l-2.720023 3.255756zM9.91242 9.80486c-.333804.369085-.904396.398395-1.274451.065467-.370056-.332929-.399443-.902023-.065639-1.271108l2.795225-3.302039c.359209-.397173.98439-.396082 1.342201.002343l2.720024 3.255755c.332507.370248.301123.939236-.070098 1.27087-.371222.331636-.941707.300334-1.274214-.069914l-1.753672-2.17972c-.147608-.164362-.40051-.177944-.564871-.030336a.399995.399995 0 00-.029399.029296L9.91242 9.804859z"/></svg>
